X: 21
T:Banks of the Quay
R:Polka
M:4/4
L:1/4
K:G
|:DGB>B|cAB2|BA/G/FG|AGFE|
DGB>B|cAB2|BA/G/FG|AGG>F:|
d2d>d|edd>B|AGFG|[1AGG>B|
d2d>d|edd>B|AGFG|AGG>B:|[2AGFE|
DGB>B|cAB2|BA/G/FG|AGG>F:|
